dist/img/abstract02.svg

<svg width="1530" height="250" viewBox="0 0 1530 250" fill="none" xmlns="http://www.w3.org/2000/svg">
<path d="M165.56 1H0.519531V165.962H165.56V1Z" stroke="#1B1B1B"/>
<path d="M495.642 1C450.282 1.31125 413.641 38.1425 413.641 83.4812C413.641 128.82 450.282 165.651 495.642 165.962H330.602V1H495.642Z" stroke="#1B1B1B"/>
<path d="M495.641 32.125V83.4812V134.837C467.511 134.526 444.779 111.701 444.779 83.4812C444.779 55.2612 467.511 32.4362 495.641 32.125Z" stroke="#1B1B1B"/>
<path d="M1446.44 1V84H1364.44V165.962H1281.4V1H1446.44Z" stroke="#1B1B1B"/>
<path d="M826.761 11.8937V165.962H785.242C798.632 165.755 810.465 159.219 817.835 149.155C822.817 142.411 825.723 134.007 825.723 124.981C825.723 102.467 807.662 84.3112 785.242 84C785.242 89.395 785.761 94.5825 786.799 99.6662C799.877 100.704 810.153 111.701 810.153 124.981C810.153 129.961 808.7 134.526 806.209 138.469C801.85 145.524 794.065 150.192 785.138 150.4C784.93 150.4 784.827 150.4 784.619 150.4C770.606 150.4 759.188 138.987 759.188 124.981C759.188 110.975 770.606 99.5625 784.619 99.5625C784.827 99.5625 784.93 99.5625 785.138 99.5625V84H784.723C762.094 84 743.722 102.364 743.722 124.981C743.722 147.599 762.094 165.962 784.723 165.962H661.721V134.837C689.85 134.526 712.582 111.701 712.582 83.4812C712.582 55.2612 689.85 32.4362 661.721 32.125V1H785.242V83.4812C785.242 52.875 801.953 26.1075 826.761 11.8937Z" stroke="#1B1B1B"/>
<path d="M950.283 1V165.962H785.242C798.633 165.755 810.466 159.219 817.835 149.155C822.818 142.411 825.724 134.007 825.724 124.981C825.724 102.467 807.663 84.3112 785.242 84C785.242 89.395 785.761 94.5825 786.799 99.6662C799.878 100.704 810.154 111.701 810.154 124.981C810.154 129.961 808.701 134.526 806.21 138.469C801.85 145.524 794.065 150.192 785.139 150.4V83.4812C785.139 52.875 801.85 26.1075 826.658 11.8937V1H950.283Z" stroke="#1B1B1B"/>
<path d="M578.681 1V165.962H413.641V83.4812C413.641 128.82 450.282 165.651 495.642 165.962V134.837C467.512 134.526 444.78 111.701 444.78 83.4812C444.78 55.2612 467.512 32.4362 495.642 32.125V1C450.282 1.31125 413.641 38.1425 413.641 83.4812V1H578.681Z" stroke="#1B1B1B"/>
<path d="M1529.48 1V165.962H1446.44V84H1364.44V1H1529.48Z" stroke="#1B1B1B"/>
<path d="M950.283 1H1115.32V165.962H950.283V1Z" stroke="#1B1B1B"/>
<path d="M1281.4 1V165.962H1115.32V1H1198.78C1153.31 1 1116.46 37.8313 1116.46 83.2737C1116.46 128.716 1153.31 165.547 1198.78 165.547C1244.24 165.547 1281.09 128.716 1281.09 83.2737C1281.09 37.8313 1244.24 1 1198.78 1H1281.4Z" fill="#1B1B1B" stroke="#1B1B1B"/>
<path d="M1198.78 165.548C1244.24 165.548 1281.09 128.712 1281.09 83.2738C1281.09 37.8352 1244.24 1 1198.78 1C1153.32 1 1116.46 37.8352 1116.46 83.2738C1116.46 128.712 1153.32 165.548 1198.78 165.548Z" stroke="#1B1B1B"/>
<path d="M330.601 84H247.562C247.251 129.131 210.713 165.651 165.561 165.963V248.963H330.601V195" stroke="#1B1B1B"/>
<path d="M743.723 124.981V84H784.723C762.095 84 743.723 102.364 743.723 124.981Z" stroke="#1B1B1B"/>
<path d="M785.241 84C785.241 89.395 785.864 94.5825 786.798 99.6662C799.877 100.704 810.153 111.701 810.153 124.981C810.153 129.961 808.7 134.526 806.208 138.469C801.849 145.524 794.064 150.192 785.137 150.4C784.93 150.4 784.826 150.4 784.618 150.4C770.605 150.4 759.188 138.987 759.188 124.981C759.188 110.975 770.605 99.5625 784.618 99.5625C784.826 99.5625 784.93 99.5625 785.137 99.5625V84H785.241Z" stroke="#1B1B1B"/>
<path d="M908.763 222.246V248.963H743.723V124.981C743.723 147.599 762.095 165.963 784.723 165.963H785.242C798.632 165.755 810.466 159.219 817.835 149.155C822.818 142.411 825.724 134.008 825.724 124.981C825.724 102.467 807.663 84.3113 785.242 84H908.763V165.963" stroke="#1B1B1B"/>
<path d="M1529.48 84V248.963H1364.44V165.963H1446.44V84H1529.48Z" stroke="#1B1B1B"/>
<path d="M247.562 84C247.251 129.131 210.713 165.651 165.561 165.962V84H247.562Z" fill="#1B1B1B" stroke="#1B1B1B"/>
<path d="M247.562 83.4812C247.562 83.6887 247.562 83.7925 247.562 84H165.561V165.962C165.353 165.962 165.249 165.962 165.042 165.962C119.474 165.962 82.5215 129.027 82.5215 83.4812C82.5215 37.935 119.474 1 165.042 1C165.249 1 165.353 1 165.561 1C210.921 1.31125 247.562 38.1425 247.562 83.4812Z" stroke="#1B1B1B"/>
<path d="M810.154 124.981C810.154 129.961 808.701 134.526 806.209 138.469C796.556 127.679 789.705 114.399 786.799 99.666C799.878 100.704 810.154 111.701 810.154 124.981Z" stroke="#1B1B1B"/>
<path d="M950.283 83.4812C950.283 114.087 933.571 140.855 908.763 155.069C896.722 162.02 882.71 165.962 867.763 165.962C852.815 165.962 838.803 162.02 826.762 155.069C823.648 153.305 820.638 151.334 817.835 149.155C822.818 142.411 825.724 134.007 825.724 124.981C825.724 102.467 807.663 84.3112 785.242 84C785.242 83.7925 785.242 83.6887 785.242 83.4812C785.242 52.875 801.954 26.1075 826.762 11.8937C838.803 4.9425 852.815 1 867.763 1C913.33 1 950.283 37.935 950.283 83.4812Z" stroke="#1B1B1B"/>
<path d="M330.601 1V84H248.6C248.6 83.7925 248.6 83.6888 248.6 83.4813C248.6 38.1425 285.241 1.31125 330.601 1Z" fill="#1B1B1B" stroke="#1B1B1B"/>
<path d="M413.64 83.4812C413.64 129.027 376.688 165.962 331.12 165.962C330.912 165.962 330.809 165.962 330.601 165.962C285.448 165.651 248.911 129.131 248.6 84H330.601V1C330.809 1 330.912 1 331.12 1C376.688 1 413.64 37.935 413.64 83.4812Z" stroke="#1B1B1B"/>
<path d="M661.721 1C661.513 1 661.41 1 661.202 1C615.634 1 578.682 37.935 578.682 83.4812C578.682 129.027 615.634 165.962 661.202 165.962C661.41 165.962 661.513 165.962 661.721 165.962C707.081 165.651 743.722 128.82 743.722 83.4812C743.722 38.1425 707.081 1.31125 661.721 1ZM661.721 134.837V32.125C689.851 32.4362 712.583 55.2612 712.583 83.4812C712.583 111.701 689.851 134.526 661.721 134.837Z" stroke="#1B1B1B"/>
<path d="M1198.78 165.548C1244.24 165.548 1281.09 128.712 1281.09 83.2738C1281.09 37.8352 1244.24 1 1198.78 1C1153.32 1 1116.46 37.8352 1116.46 83.2738C1116.46 128.712 1153.32 165.548 1198.78 165.548Z" stroke="#1B1B1B"/>
<path d="M444.78 83.4812C444.78 111.701 467.512 134.526 495.642 134.837V165.962C450.282 165.651 413.641 128.82 413.641 83.4812C413.641 38.1425 450.282 1.31125 495.642 1V32.125C467.512 32.4362 444.78 55.2612 444.78 83.4812Z" fill="#1B1B1B" stroke="#1B1B1B"/>
<path d="M578.68 83.4812C578.68 129.027 541.728 165.962 496.16 165.962C495.952 165.962 495.849 165.962 495.641 165.962V134.837C467.511 134.526 444.779 111.701 444.779 83.4812C444.779 55.2612 467.511 32.4362 495.641 32.125V1C495.849 1 495.952 1 496.16 1C541.728 1 578.68 37.935 578.68 83.4812Z" stroke="#1B1B1B"/>
<path d="M1529.48 83.4812C1529.48 83.6887 1529.48 83.7925 1529.48 84C1529.17 129.339 1492.32 165.962 1446.96 165.962C1446.75 165.962 1446.65 165.962 1446.44 165.962V84H1364.44C1364.44 83.7925 1364.44 83.6887 1364.44 83.4812C1364.44 38.1425 1401.08 1.31125 1446.44 1C1446.65 1 1446.75 1 1446.96 1C1492.53 1 1529.48 37.935 1529.48 83.4812Z" stroke="#1B1B1B"/>
<path d="M547.54 83.4812C547.54 111.805 524.497 134.837 496.16 134.837C495.952 134.837 495.848 134.837 495.641 134.837C467.511 134.526 444.779 111.701 444.779 83.4812C444.779 55.2612 467.511 32.4362 495.641 32.125C495.848 32.125 495.952 32.125 496.16 32.125C524.497 32.125 547.54 55.1575 547.54 83.4812Z" stroke="#1B1B1B"/>
<path d="M712.582 83.4812C712.582 111.701 689.85 134.526 661.721 134.837V32.125C689.85 32.4362 712.582 55.2612 712.582 83.4812Z" fill="#1B1B1B" stroke="#1B1B1B"/>
<path d="M661.72 32.125V134.837C661.512 134.837 661.409 134.837 661.201 134.837C632.864 134.837 609.82 111.805 609.82 83.4812C609.82 55.1575 632.864 32.125 661.201 32.125C661.409 32.125 661.512 32.125 661.72 32.125Z" stroke="#1B1B1B"/>
<path d="M1032.8 134.837C1061.18 134.837 1084.18 111.845 1084.18 83.4812C1084.18 55.118 1061.18 32.125 1032.8 32.125C1004.43 32.125 981.422 55.118 981.422 83.4812C981.422 111.845 1004.43 134.837 1032.8 134.837Z" stroke="#1B1B1B"/>
<path d="M1198.38 134.712C1226.76 134.712 1249.76 111.72 1249.76 83.3562C1249.76 54.993 1226.76 32 1198.38 32C1170 32 1147 54.993 1147 83.3562C1147 111.72 1170 134.712 1198.38 134.712Z" stroke="#1B1B1B"/>
<path d="M817.835 149.155C810.465 159.219 798.632 165.755 785.242 165.962V150.4C794.065 150.192 801.85 145.524 806.313 138.469C809.739 142.411 813.683 145.939 817.835 149.155Z" fill="#1B1B1B" stroke="#1B1B1B"/>
<path d="M1406.5 249C1383.58 249 1365 230.42 1365 207.5C1365 184.58 1383.58 166 1406.5 166" stroke="#1B1B1B"/>
<path d="M810.153 124.981C810.153 129.961 808.7 134.526 806.208 138.469C801.849 145.524 794.064 150.192 785.137 150.4C784.93 150.4 784.826 150.4 784.618 150.4C770.605 150.4 759.188 138.987 759.188 124.981C759.188 110.975 770.605 99.5625 784.618 99.5625C784.826 99.5625 784.93 99.5625 785.137 99.5625C785.656 99.5625 786.175 99.5625 786.694 99.6662C799.877 100.704 810.153 111.701 810.153 124.981Z" stroke="#1B1B1B"/>
<path d="M1446 84H1364V166H1446V84Z" fill="#1B1B1B"/>
<path d="M868.001 1C853.061 1 839.055 4.9425 827.02 11.8937C802.223 26.1075 785.52 52.875 785.52 83.4812V1H868.001Z" fill="#1B1B1B" stroke="#1B1B1B"/>
<path d="M1529 83.4812C1529 83.6887 1529 83.7925 1529 84H1498.25C1498.25 83.7925 1498.25 83.6887 1498.25 83.4812C1498.25 55.1575 1475.49 32.125 1447.51 32.125C1447.31 32.125 1447.2 32.125 1447 32.125V1C1447.2 1 1447.31 1 1447.51 1C1492.51 1 1529 37.935 1529 83.4812Z" fill="#1B1B1B" stroke="#1B1B1B"/>
<path d="M638.371 210.278C675.339 204.403 701.375 196.622 701.375 187.343C701.375 162.361 636.727 187.653 638.371 210.278Z" fill="#1B1B1B"/>
<path d="M165 209.472C224.316 207.708 474.35 176.928 477.966 187.343C481.582 197.759 391.926 201.208 391.926 213.604C391.926 226 548.825 224.508 638.371 210.278M1364.5 182.5C1359.79 191.48 1168.11 252.698 1156.81 234.928C1145.5 217.158 1218.43 205.85 1206.92 193.116C1195.41 180.382 1022 248.006 970.773 248.006C941.5 248.006 934.168 228.591 934.917 216.679M934.917 216.679C960.788 210.02 975.739 201.975 970.773 193.116C963.241 179.68 936.16 196.916 934.917 216.679ZM934.917 216.679C861.751 235.513 701.242 243.266 656.924 227.031C644.132 222.345 638.817 216.41 638.371 210.278M638.371 210.278C675.339 204.403 701.375 196.622 701.375 187.343C701.375 162.361 636.727 187.653 638.371 210.278Z" stroke="#1B1B1B"/>
<g clip-path="url(#clip0)">
<path d="M1447 93V115.717C1432.71 128.864 1416.95 113.403 1409.18 125.603C1401.82 137.172 1410.23 151.897 1385.01 142.431C1374.72 138.54 1368.1 145.376 1364 154V130.231C1367.78 126.866 1372.62 125.393 1378.71 127.707C1403.92 137.172 1390.65 117.069 1398 105.5C1406.93 91.5121 1431.24 119.293 1447 93Z" fill="#FDF7F2" stroke="#FDF7F2" stroke-miterlimit="10"/>
</g>
<path d="M1083 72.5642C1081.64 73.3932 1047.44 61.8521 1049.5 85C1051.5 107.5 1044.26 104.407 1026.5 97.5C1006.76 88.907 1014.61 105.725 1012.63 116.71C1011.17 124.896 1004.08 125 1002.93 125C995.009 119.508 988.857 111.943 985 103.134C985.417 103.134 1001.5 106.5 998 94.9999C994.567 83.7187 992 71.9999 1009.5 78.4999C1027 84.9999 1042.5 85 1038.27 60.3361C1034.22 36.6651 1061.5 73.4999 1069.86 47.5898C1076.33 54.4293 1081.02 62.9268 1083 72.5642Z" fill="#1B1B1B"/>
<path d="M480.877 92C486.571 98.6955 483.825 108 470.448 103C452.822 97.4642 459.5 119 459.5 119C455.5 115 450.5 108 447 98C447 98 448.546 86.4695 458.975 86.4695C467.319 86.4695 472.534 93.9215 470.448 82.2112C468.153 69.5428 471.755 67.1048 480.877 70C490 72.8952 494.979 72.5236 495.5 54V88.5C480.877 77 474.5 84.5 480.877 92Z" fill="#1B1B1B"/>
<path d="M165.481 25.6138V49C162 89 139.5 53.5 132.5 59C125.5 64.5 132.814 96.0916 105.851 82.7939C88.4287 74.2016 83.0361 91.7955 83.0361 91.7955C82.725 88.829 82.5176 85.7603 82.5176 82.6916C82.5176 77.884 82.9324 73.1787 83.762 68.5756C83.9694 67.9619 92.7704 48.442 102 55.5C111.333 62.6603 119 75.5 120.5 47.5C122 19.5 147.5 56.5 153 51.5C158.5 46.5 150 25.6138 165.481 25.6138Z" fill="#1B1B1B"/>
<defs>
<clipPath id="clip0">
<rect width="83" height="64" fill="white" transform="translate(1364 92)"/>
</clipPath>
</defs>
</svg>

<svg xmlns="http://www.w3.org/2000/svg" fill="none" viewBox="0 0 1530 250"><path stroke="#1B1B1B" d="M165.56 1H.52v164.962h165.04V1zM495.642 1c-45.36.311-82.001 37.142-82.001 82.481 0 45.339 36.641 82.17 82.001 82.481h-165.04V1h165.04z"/><path stroke="#1B1B1B" d="M495.641 32.125v102.712c-28.13-.311-50.862-23.136-50.862-51.356 0-28.22 22.732-51.045 50.862-51.356zM1446.44 1v83h-82v81.962h-83.04V1h165.04zM826.761 11.894v154.068h-41.519a41.062 41.062 0 0 0 32.593-16.807c4.982-6.744 7.888-15.148 7.888-24.174 0-22.514-18.061-40.67-40.481-40.981 0 5.395.519 10.582 1.557 15.666 13.078 1.038 23.354 12.035 23.354 25.315 0 4.98-1.453 9.545-3.944 13.488-4.359 7.055-12.144 11.723-21.071 11.931h-.519c-14.013 0-25.431-11.413-25.431-25.419s11.418-25.418 25.431-25.418h.519V84h-.415c-22.629 0-41.001 18.364-41.001 40.981 0 22.618 18.372 40.981 41.001 40.981H661.721v-31.125c28.129-.311 50.861-23.136 50.861-51.356 0-28.22-22.732-51.045-50.861-51.356V1h123.521v82.481c0-30.606 16.711-57.373 41.519-71.587z"/><path stroke="#1B1B1B" d="M950.283 1v164.962H785.242c13.391-.207 25.224-6.743 32.593-16.807 4.983-6.744 7.889-15.148 7.889-24.174 0-22.514-18.061-40.67-40.482-40.981 0 5.395.519 10.582 1.557 15.666 13.079 1.038 23.355 12.035 23.355 25.315 0 4.98-1.453 9.545-3.944 13.488-4.36 7.055-12.145 11.723-21.071 11.931V83.481c0-30.606 16.711-57.373 41.519-71.587V1h123.625zM578.681 1v164.962h-165.04v-82.48c0 45.338 36.641 82.169 82.001 82.48v-31.125c-28.13-.311-50.862-23.136-50.862-51.356 0-28.22 22.732-51.045 50.862-51.356V1c-45.36.311-82.001 37.142-82.001 82.481V1h165.04zM1529.48 1v164.962h-83.04V84h-82V1h165.04zM950.283 1h165.037v164.962H950.283V1z"/><path fill="#1B1B1B" stroke="#1B1B1B" d="M1281.4 1v164.962h-166.08V1h83.46c-45.47 0-82.32 36.831-82.32 82.274 0 45.442 36.85 82.273 82.32 82.273 45.46 0 82.31-36.831 82.31-82.273C1281.09 37.83 1244.24 1 1198.78 1h82.62z"/><path stroke="#1B1B1B" d="M1198.78 165.548c45.46 0 82.31-36.836 82.31-82.274 0-45.439-36.85-82.274-82.31-82.274s-82.32 36.835-82.32 82.274c0 45.438 36.86 82.274 82.32 82.274zM330.601 84h-83.039c-.311 45.131-36.849 81.651-82.001 81.963v83h165.04V195M743.723 124.981V84h41c-22.628 0-41 18.364-41 40.981zM785.241 84c0 5.395.623 10.582 1.557 15.666 13.079 1.038 23.355 12.035 23.355 25.315 0 4.98-1.453 9.545-3.945 13.488-4.359 7.055-12.144 11.723-21.071 11.931h-.519c-14.013 0-25.43-11.413-25.43-25.419s11.417-25.418 25.43-25.418h.519V84h.104z"/><path stroke="#1B1B1B" d="M908.763 222.246v26.717h-165.04V124.981c0 22.618 18.372 40.982 41 40.982h.519c13.39-.208 25.224-6.744 32.593-16.808 4.983-6.744 7.889-15.147 7.889-24.174 0-22.514-18.061-40.67-40.482-40.981h123.521v81.963M1529.48 84v164.963h-165.04v-83h82V84h83.04z"/><path fill="#1B1B1B" stroke="#1B1B1B" d="M247.562 84c-.311 45.131-36.849 81.651-82.001 81.962V84h82.001z"/><path stroke="#1B1B1B" d="M247.562 83.481V84h-82.001v81.962h-.519c-45.568 0-82.52-36.935-82.52-82.48C82.522 37.934 119.474 1 165.041 1h.519c45.36.311 82.001 37.142 82.001 82.481zM810.154 124.981c0 4.98-1.453 9.545-3.945 13.488-9.653-10.79-16.504-24.07-19.41-38.803 13.079 1.038 23.355 12.035 23.355 25.315z"/><path stroke="#1B1B1B" d="M950.283 83.481c0 30.606-16.712 57.374-41.52 71.588-12.041 6.951-26.053 10.893-41 10.893-14.948 0-28.96-3.942-41.001-10.893-3.114-1.764-6.124-3.735-8.927-5.914 4.983-6.744 7.889-15.148 7.889-24.174 0-22.514-18.061-40.67-40.482-40.981v-.519c0-30.606 16.712-57.373 41.52-71.587C838.803 4.942 852.815 1 867.763 1c45.567 0 82.52 36.935 82.52 82.481z"/><path fill="#1B1B1B" stroke="#1B1B1B" d="M330.601 1v83H248.6v-.519c0-45.338 36.641-82.17 82.001-82.481z"/><path stroke="#1B1B1B" d="M413.64 83.481c0 45.546-36.952 82.481-82.52 82.481h-.519c-45.153-.311-81.69-36.831-82.001-81.962h82.001V1h.519c45.568 0 82.52 36.935 82.52 82.481zM661.721 1h-.519c-45.568 0-82.52 36.935-82.52 82.481 0 45.546 36.952 82.481 82.52 82.481h.519c45.36-.311 82.001-37.142 82.001-82.48 0-45.34-36.641-82.17-82.001-82.482zm0 133.837V32.125c28.13.311 50.862 23.136 50.862 51.356 0 28.22-22.732 51.045-50.862 51.356zM1198.78 165.548c45.46 0 82.31-36.836 82.31-82.274 0-45.439-36.85-82.274-82.31-82.274s-82.32 36.835-82.32 82.274c0 45.438 36.86 82.274 82.32 82.274z"/><path fill="#1B1B1B" stroke="#1B1B1B" d="M444.78 83.481c0 28.22 22.732 51.045 50.862 51.356v31.125c-45.36-.311-82.001-37.142-82.001-82.48 0-45.34 36.641-82.17 82.001-82.482v31.125c-28.13.311-50.862 23.136-50.862 51.356z"/><path stroke="#1B1B1B" d="M578.68 83.481c0 45.546-36.952 82.481-82.52 82.481h-.519v-31.125c-28.13-.311-50.862-23.136-50.862-51.356 0-28.22 22.732-51.045 50.862-51.356V1h.519c45.568 0 82.52 36.935 82.52 82.481zM1529.48 83.481V84c-.31 45.339-37.16 81.962-82.52 81.962h-.52V84h-82v-.519c0-45.338 36.64-82.17 82-82.481h.52c45.57 0 82.52 36.935 82.52 82.481z"/><path stroke="#1B1B1B" d="M547.54 83.481c0 28.324-23.043 51.356-51.38 51.356h-.519c-28.13-.311-50.862-23.136-50.862-51.356 0-28.22 22.732-51.045 50.862-51.356h.519c28.337 0 51.38 23.032 51.38 51.356z"/><path fill="#1B1B1B" stroke="#1B1B1B" d="M712.582 83.481c0 28.22-22.732 51.045-50.861 51.356V32.125c28.129.311 50.861 23.136 50.861 51.356z"/><path stroke="#1B1B1B" d="M661.72 32.125v102.712h-.519c-28.337 0-51.381-23.032-51.381-51.356 0-28.323 23.044-51.356 51.381-51.356h.519zM1032.8 134.837c28.38 0 51.38-22.992 51.38-51.356 0-28.363-23-51.356-51.38-51.356-28.37 0-51.378 22.993-51.378 51.356 0 28.364 23.008 51.356 51.378 51.356zM1198.38 134.712c28.38 0 51.38-22.992 51.38-51.356 0-28.363-23-51.356-51.38-51.356C1170 32 1147 54.993 1147 83.356c0 28.364 23 51.356 51.38 51.356z"/><path fill="#1B1B1B" stroke="#1B1B1B" d="M817.835 149.155a41.062 41.062 0 0 1-32.593 16.807V150.4a25.626 25.626 0 0 0 21.071-11.931c3.426 3.942 7.37 7.47 11.522 10.686z"/><path stroke="#1B1B1B" d="M1406.5 249c-22.92 0-41.5-18.58-41.5-41.5s18.58-41.5 41.5-41.5M810.153 124.981c0 4.98-1.453 9.545-3.945 13.488-4.359 7.055-12.144 11.723-21.071 11.931h-.519c-14.013 0-25.43-11.413-25.43-25.419s11.417-25.418 25.43-25.418h.519c.519 0 1.038 0 1.557.103 13.183 1.038 23.459 12.035 23.459 25.315z"/><path fill="#1B1B1B" d="M1446 84h-82v82h82V84z"/><path fill="#1B1B1B" stroke="#1B1B1B" d="M868.001 1c-14.94 0-28.946 3.942-40.981 10.894-24.797 14.214-41.5 40.981-41.5 71.587V1h82.481zM1529 83.481V84h-30.75v-.519c0-28.323-22.76-51.356-50.74-51.356h-.51V1h.51c45 0 81.49 36.935 81.49 82.481z"/><path fill="#1B1B1B" d="M638.371 210.278c36.968-5.875 63.004-13.656 63.004-22.935 0-24.982-64.648.31-63.004 22.935z"/><path stroke="#1B1B1B" d="M165 209.472c59.316-1.764 309.35-32.544 312.966-22.129 3.616 10.416-86.04 13.865-86.04 26.261 0 12.396 156.899 10.904 246.445-3.326M1364.5 182.5c-4.71 8.98-196.39 70.198-207.69 52.428-11.31-17.77 61.62-29.078 50.11-41.812-11.51-12.734-184.92 54.89-236.147 54.89-29.273 0-36.605-19.415-35.856-31.327m0 0c25.871-6.659 40.822-14.704 35.856-23.563-7.532-13.436-34.613 3.8-35.856 23.563zm0 0c-73.166 18.834-233.675 26.587-277.993 10.352-12.792-4.686-18.107-10.621-18.553-16.753m0 0c36.968-5.875 63.004-13.656 63.004-22.935 0-24.982-64.648.31-63.004 22.935z"/><g clip-path="url(#clip0)"><path fill="#FDF7F2" stroke="#FDF7F2" stroke-miterlimit="10" d="M1447 93v22.717c-14.29 13.147-30.05-2.314-37.82 9.886-7.36 11.569 1.05 26.294-24.17 16.828-10.29-3.891-16.91 2.945-21.01 11.569v-23.769c3.78-3.365 8.62-4.838 14.71-2.524 25.21 9.465 11.94-10.638 19.29-22.207 8.93-13.988 33.24 13.793 49-12.5z"/></g><path fill="#1B1B1B" d="M1083 72.564c-1.36.83-35.56-10.712-33.5 12.436 2 22.5-5.24 19.407-23 12.5-19.74-8.593-11.89 8.225-13.87 19.21-1.46 8.186-8.55 8.29-9.7 8.29-7.921-5.492-14.073-13.057-17.93-21.866.417 0 16.5 3.366 13-8.134-3.433-11.281-6-23 11.5-16.5s33 6.5 28.77-18.164c-4.05-23.67 23.23 13.164 31.59-12.746 6.47 6.84 11.16 15.337 13.14 24.974zM480.877 92c5.694 6.695 2.948 16-10.429 11-17.626-5.536-10.948 16-10.948 16-4-4-9-11-12.5-21 0 0 1.546-11.53 11.975-11.53 8.344 0 13.559 7.451 11.473-4.259-2.295-12.668 1.307-15.106 10.429-12.211 9.123 2.895 14.102 2.524 14.623-16v34.5c-14.623-11.5-21-4-14.623 3.5zM165.481 25.614V49C162 89 139.5 53.5 132.5 59s.314 37.092-26.649 23.794c-17.422-8.592-22.815 9.002-22.815 9.002-.311-2.967-.518-6.036-.518-9.104 0-4.808.414-9.513 1.244-14.116.207-.614 9.008-20.134 18.238-13.076 9.333 7.16 17 20 18.5-8s27 9 32.5 4-3-25.886 12.481-25.886z"/><defs><clipPath id="clip0"><path fill="#fff" d="M0 0h83v64H0z" transform="translate(1364 92)"/></clipPath></defs></svg>
